X: 36947
T: Shovel The Walk
R: jig
M: 6/8
K: Adorian
G|DEF E3|F3 DEF|Gcc FBB|EGF EFG|
ABF E3|F2c BAF|G2d cAF|EGF EFG:|
ABc d2A|dBd e2d|BAd cBA|G2d BGA|
Bcd e2f|gfe a3|g2e dAG|EGF EFG:|

